!!!OTL: Dongshan chang ge xishan he
!!!ARE: Asia, China,ÿHubei, Zhuxi
!! I, 436
!!!SCT: C1447
!!!YEM: Copyright 1995, estate of Helmut Schaffrath.
**kern
*ICvox
*Ivox
!! Mixed meters:  2/4; 1/4
*M1/4
*k[b-e-a-]
*E-:
{8ff
4ff
16ee-
16cc
=1
8.b-
16cc
8ee-
8ee-
=2
8ff
16ff
16ee-
16cc
16ee-
8cc
=3
4b-
4b-
=4
4cc}
=5
*M2/4
{8ff
8ff
4ff
=6
8cc
16ee-
16ff
4ee-
=7
4ff
8ee-
8cc
=8
8cc
8b-
4b-
=9
*M1/4
4cc}
=10
*M2/4
{8ff
4ee-
8cc
=11
8.b-
16cc
8ee-
8ee-
=12
8ff
16ff
16ee-
8ee-
8cc
=13
4b-
4b-
=14
*M1/4
4cc}
=15
*M2/4
{8ff
8ee-
8ee-
8cc
=16
8ee-
4ee-
8ee-
=17
4ff
4b-
=18
8cc
8dd
4cc
=19
*M1/4
4cc}
=20
*M2/4
{8ff
4ee-
8cc
=21
8.b-
16cc
8ee-
8ee-
=22
8ff
16ff
16ee-
8ee-
8cc
=23
4b-
4b-
=24
*M1/4
4cc}
=25
*M2/4
{8ff
16cc
16ee-
4ee-
=26
16cc
16ee-
8cc
4r
=27
4ee-
4b-
=28
8cc
8b-
4b-
=29
*M1/4
4cc}
=30
*M2/4
{8ff
4ee-
8cc
=31
8.b-
16cc
8ee-
8ee-
=32
8ff
16ff
16ee-
8ee-
8cc
=33
4b-
4b-}
==
!!!AGN: Shange, Tiange, Haocao haozi, Pingqiang
!!!ONB: ESAC (Essen Associative Code) Database: HUANG
!!!AMT: irregular
!!!AIN: vox
!!!EED: Helmut Schaffrath
!!!EEV: 1.0
*-
